!!!COA:	Josquin des Prez
!!!CDT:	~1450-1521/08/27
!!!OTL:	Je ne demande
!!!AGN:	Chanson
!!!SCT:	NJE 27.18
!!!SCA:	New Josquin Edition 27.18
!!!voices:	3
**kern	**kern	**kern
*staff3	*staff2	*staff1
*Ivox	*Ivox	*Ivox
*I"Contra	*I"Tenor	*I"Superius
*I'C	*I'T	*I'S
*clefF4	*clefGv2	*clefG2
*k[b-]	*k[b-]	*k[b-]
*M2/1	*M2/1	*M2/1
*met(C|)	*met(C|)	*met(C|)
=1-	=1-	=1-
0r	0G	1g
.	.	1g
=2	=2	=2
0r	1F	1a
.	[1G	[1b-
=3	=3	=3
0r	2G/]	2b-\]
.	2F/	2a/
.	1G	1b-
=4	=4	=4
0r	1A	1cc
.	1F	1a
=5	=5	=5
0r	2.G/	1.g
.	4D/	.
.	2G/	.
.	2A/	4f/
.	.	4e/
=6	=6	=6
0r	1B-	1d
.	2A/	2c/
.	[2B-\	[2d/
=7	=7	=7
0r	4B-\]	4d/]
.	4A/	4c/
.	1G	2B-/
.	.	1A
.	2F#i/	.
=8	=8	=8
0G	0G	0G
=9	=9	=9
2.G\	2.g\	0r
4A\	4f\	.
2B-\	2g\	.
2c\	2a\	.
=10	=10	=10
2d\	2d\	0r
2B-\	1g	.
1A	.	.
.	2f#i\	.
=11	=11	=11
0G	1g	0b-
.	1g	.
=12	=12	=12
1G	1r	1b-
1G	1g	[1b-
=13	=13	=13
1r	1e	1b-]
1F	[1f	[1a
=14	=14	=14
1D	2f\]	2a/]
.	4e\	4g/
.	4d\	4f/
1C	1e	1g
=15	=15	=15
2D\	2f\	2r
1BB-	1d	1f
2r	4c\	4e/
.	4B-\	4d/
=16	=16	=16
1AA	1c	1e
2BB-/	2d\	2r
[2GG/	[2B-\	[2d/
=17	=17	=17
2GG/]	2B-\]	2d/]
2r	4A/	4c/
.	4G/	4B-/
1FF	1A	1c
=18	=18	=18
2.GG/	2r	2.B-/
.	2.B-\	.
4AA/	.	4c/
2.BB-/	.	2.d/
.	4c\	.
.	[2d\	.
4C/	.	4e/
=19	=19	=19
2D\	2d\]	2f/
2E-\	1B-	2g/
2G\	.	2b-\
[2F\	[2c\	[2a/
=20	=20	=20
2F\]	4c\]	4a/]
.	4B-\	4g/
2G\	2G/	1g
1D	1A	.
.	.	2f#i/
=21	=21	=21
1.E-i	1.G	0g
2F\	2A/	.
=22	=22	=22
1G	1.B-	1r
2G\	.	2.d/
4F\	2c\	.
4E\	.	4e/
=23	=23	=23
1.D	1d	1.f
.	[1d	.
4E\	.	4g/
4F\	.	4a/
=24	=24	=24
1G	2d\]	1b-
.	2e\	.
2F\	1f	2a/
[2B-\	.	[2dd\
=25	=25	=25
4B-\]	1g	2dd\]
4A\	.	.
4B-\	.	4cc\
4c\	.	4b-\
1d	1f	1a
=26	=26	=26
2G\	2d\	2r
1.E-i	2.e-\	2.g/
.	4d\	4f/
.	4c\	4e/
.	4B-\	4d/
=27	=27	=27
1A	1c	1e
2.D\	2.d\	2d/
.	.	[2f/
4E\	4c\	.
=28	=28	=28
2F\	2A/	2f/]
4E\	2B-\	2g/
4G\	.	.
4F\	2c\	1a
4A\	.	.
[2D\	[2d\	.
=29	=29	=29
2D\]	2d\]	1b-
1G	1e	.
.	.	2cc\
[2F\	2f\	[2a/
=30	=30	=30
2F\]	2.d\	2a/]
2G\	.	1dd
.	4c\	.
2D\	2B-\	.
[2F\	[2A/	2cc\
=31	=31	=31
4F\]	4A/]	1a
4G\	4B-\	.
2A\	2c\	.
2D\	1d	1f
[2BB-/	.	.
=32	=32	=32
1BB-]	1B-	2g/
.	.	1b-
1F	1c	.
.	.	2a/
=33	=33	=33
1BB-	1B-	0b-
1BB-	1B-	.
=34	=34	=34
2.BB-/	1r	0r
4C/	.	.
2D\	2.B-\	.
[2GG/	.	.
.	4c\	.
=35	=35	=35
2GG/]	2d\	0r
2.D\	1A	.
4E\	.	.
4F\	2d\	.
4G\	.	.
=36	=36	=36
2A\	2c\	0r
2B-\	2d\	.
2A\	2.c\	.
[2c\	.	.
.	4B-\	.
=37	=37	=37
4c\]	4A/	0r
4B-\	4G/	.
4A\	2F/	.
4G\	.	.
2F\	2A/	.
2A\	2D/	.
=38	=38	=38
2D\	2F/	0r
1G	4B-\	.
.	4c\	.
.	4d\	.
.	4e\	.
[2d\	[2f\	.
=39	=39	=39
4d\]	4f\]	0r
4c\	4d\	.
2B-\	1g	.
1A	.	.
.	2f#i\	.
=40	=40	=40
1G	1.g	1.b-
1r	.	.
.	2f\	2a/
=41	=41	=41
1r	2e\	2g/
.	2d\	2f/
1D	1d	1f
=42	=42	=42
1G	2B-\	2r
.	1d	2d/
2.D\	.	2f/
.	4c\	2g/
4E\	4B-\	.
=43	=43	=43
1F	2.A/	1a
.	4B-\	.
[1C	[1c	1g
=44	=44	=44
2C/]	2c\]	2e/
2.D\	1A	2.f/
4E\	.	4g/
2F\	2r	[2a/
=45	=45	=45
2F\	2.c\	2a/]
1E	.	1g
.	4d\	.
.	2.e\	.
[2A\	.	[2cc\
.	4d\	.
=46	=46	=46
2A\]	4e\	2cc\]
.	4f\	.
1G	2g\	1b-
.	1e	.
2E\	.	2g/
=47	=47	=47
1.G	1.d	1dd
.	.	4cc\
.	.	4b-\
[2F\	2f\	[2a/
=48	=48	=48
2F\]	1d	2a/]
2G\	.	4g/
.	.	4f/
[1C	[1c	[1e
=49	=49	=49
2C/]	2c\]	2e/]
2D\	4B-\	2f/
.	4A/	.
2.E\	2.G/	2g/
.	.	4f/
4F\	4A/	4e/
=50	=50	=50
1G	1B-	1d
2G\	1r	2r
2F\	.	[2dd\
=51	=51	=51
2.G\	4B-\	2dd\]
.	4c\	.
.	2d\	1dd
4F\	.	.
2.D\	1d	.
.	.	4cc\
4E\	.	4b-\
=52	=52	=52
1F	1c	2a/
.	.	2cc\
2G\	2G/	2b-\
2A\	[2c\	[2a/
=53	=53	=53
2F\	2c\]	4a/]
.	.	4g/
2G\	2B-\	1g
1D	1A	.
.	.	2f#i/
=54	=54	=54
*^	*	*
0GGl\	0dl/	0Gl	0gl
*v	*v	*	*
==	==	==
*-	*-	*-
!!!RDF**kern: l=long note in original notation
!!!RDF**kern: i=editorial accidental
!!!RDF**kern: V=start of tuplet marker
!!!RDF**kern: Z=end of tuplet marker
!!!ENC:	Victoria Chang 2012/03/28
!!!END:	2012/03/28/
!!!EED:	Jesse Rodin
!!!EEV:	2012/06/07/
!!attribution-level@Jos: 4 (questionable)
!!!ONB:	Translated from MusicXML and edited on 2012/05/25/ by Craig Sapp
!!muse2ps: C^@{COA}?\n@{SCT}^i2I150v85,85,150Q16
